flaticon/technology/charger.svg

<svg xmlns="http://www.w3.org/2000/svg" width="32" height="32" viewBox="0 0 24 24">
    <path d="M 23.59375 9.355469 L 23.59375 6.507812 L 19.527344 6.507812 L 19.527344 9.355469 L 19.117188 9.355469 L 19.117188 11.878906 C 19.117188 12.28125 19.445312 12.609375 19.847656 12.609375 L 20.339844 12.609375 C 20.339844 13.140625 20.679688 13.585938 21.152344 13.753906 L 21.152344 14.90625 C 21.152344 17.710938 19.699219 20.53125 16.554688 21.910156 C 17.875 20.71875 18.710938 19 18.710938 17.085938 C 18.710938 13.496094 15.792969 10.578125 12.203125 10.578125 C 8.613281 10.578125 5.695312 13.496094 5.695312 17.085938 C 5.695312 18.410156 6.09375 19.640625 6.777344 20.667969 C 5.359375 19.300781 4.472656 17.390625 4.472656 15.269531 L 4.472656 8.542969 L 5.289062 8.542969 L 5.289062 6.507812 L 8.136719 6.507812 L 8.136719 2.441406 L 7.730469 2.441406 L 7.730469 0.40625 L 0.40625 0.40625 L 0.40625 2.441406 L 0 2.441406 L 0 6.507812 L 2.847656 6.507812 L 2.847656 8.542969 L 3.660156 8.542969 L 3.660156 15.667969 L 3.671875 15.667969 C 3.878906 20.074219 7.527344 23.59375 11.984375 23.59375 C 12.035156 23.59375 12.089844 23.589844 12.144531 23.589844 C 12.164062 23.589844 12.183594 23.59375 12.203125 23.59375 C 12.25 23.59375 12.292969 23.585938 12.335938 23.585938 C 18.023438 23.445312 21.964844 19.917969 21.964844 14.90625 L 21.964844 13.753906 C 22.4375 13.585938 22.78125 13.140625 22.78125 12.609375 L 23.269531 12.609375 C 23.671875 12.609375 24 12.28125 24 11.878906 L 24 9.355469 Z M 1.21875 1.21875 L 6.914062 1.21875 L 6.914062 2.441406 L 6.507812 2.441406 L 6.507812 1.628906 L 5.695312 1.628906 L 5.695312 2.441406 L 2.441406 2.441406 L 2.441406 1.628906 L 1.628906 1.628906 L 1.628906 2.441406 L 1.21875 2.441406 Z M 0.8125 5.695312 L 0.8125 3.253906 L 7.320312 3.253906 L 7.320312 5.695312 Z M 4.472656 6.507812 L 4.472656 7.730469 L 3.660156 7.730469 L 3.660156 6.507812 Z M 12.34375 22.773438 C 12.277344 22.773438 12.210938 22.777344 12.140625 22.777344 C 9.703125 22.742188 7.730469 20.75 7.730469 18.304688 C 7.730469 15.839844 9.734375 13.832031 12.203125 13.832031 C 14.671875 13.832031 16.679688 15.839844 16.679688 18.304688 C 16.679688 20.726562 14.746094 22.699219 12.34375 22.773438 Z M 12.203125 11.390625 C 15.34375 11.390625 17.898438 13.945312 17.898438 17.085938 C 17.898438 17.953125 17.695312 18.773438 17.347656 19.511719 C 17.4375 19.125 17.492188 18.722656 17.492188 18.304688 C 17.492188 15.390625 15.121094 13.015625 12.203125 13.015625 C 9.289062 13.015625 6.914062 15.390625 6.914062 18.304688 C 6.914062 18.722656 6.96875 19.125 7.058594 19.511719 C 6.710938 18.773438 6.507812 17.953125 6.507812 17.085938 C 6.507812 13.945312 9.0625 11.390625 12.203125 11.390625 Z M 20.339844 8.542969 L 21.152344 8.542969 L 21.152344 7.730469 L 20.339844 7.730469 L 20.339844 7.320312 L 22.78125 7.320312 L 22.78125 7.730469 L 21.964844 7.730469 L 21.964844 8.542969 L 22.78125 8.542969 L 22.78125 9.355469 L 20.339844 9.355469 Z M 21.558594 13.015625 C 21.335938 13.015625 21.152344 12.835938 21.152344 12.609375 L 21.152344 11.796875 L 21.964844 11.796875 L 21.964844 12.609375 C 21.964844 12.835938 21.785156 13.015625 21.558594 13.015625 Z M 23.1875 11.796875 L 22.78125 11.796875 L 22.78125 10.984375 L 20.339844 10.984375 L 20.339844 11.796875 L 19.933594 11.796875 L 19.933594 10.167969 L 23.1875 10.167969 Z M 23.1875 11.796875"/>
</svg>

<svg xmlns="http://www.w3.org/2000/svg" width="32" height="32" viewBox="0 0 24 24">
    <path d="M23.594 9.355V6.508h-4.067v2.847h-.41v2.524c0 .402.328.73.73.73h.493c0 .532.34.977.812 1.145v1.152c0 2.805-1.453 5.625-4.597 7.004a6.484 6.484 0 0 0 2.156-4.824 6.513 6.513 0 0 0-6.508-6.508 6.513 6.513 0 0 0-6.508 6.508c0 1.324.399 2.555 1.082 3.582a7.476 7.476 0 0 1-2.304-5.398V8.543h.816V6.508h2.848V2.44H7.73V.406H.406v2.035H0v4.067h2.848v2.035h.812v7.125h.012c.207 4.406 3.855 7.926 8.312 7.926.051 0 .106-.004.16-.004.02 0 .04.004.06.004.046 0 .089-.008.132-.008 5.687-.14 9.629-3.668 9.629-8.68v-1.152c.473-.168.816-.613.816-1.145h.489c.402 0 .73-.328.73-.73V9.355zM1.219 1.22h5.695V2.44h-.406V1.63h-.813v.812H2.441V1.63H1.63v.812h-.41zM.812 5.695V3.254H7.32v2.441zm3.66.813V7.73H3.66V6.508zm7.872 16.265c-.067 0-.133.004-.203.004a4.48 4.48 0 0 1-4.41-4.472 4.477 4.477 0 0 1 4.472-4.473 4.48 4.48 0 0 1 4.477 4.473 4.477 4.477 0 0 1-4.336 4.468zm-.14-11.382a5.701 5.701 0 0 1 5.694 5.695 5.68 5.68 0 0 1-.55 2.426c.09-.387.144-.79.144-1.207a5.296 5.296 0 0 0-5.289-5.29 5.298 5.298 0 0 0-5.289 5.29c0 .418.055.82.145 1.207a5.68 5.68 0 0 1-.551-2.426 5.701 5.701 0 0 1 5.695-5.695zm8.136-2.848h.812V7.73h-.812v-.41h2.441v.41h-.816v.813h.816v.812H20.34zm1.219 4.473a.406.406 0 0 1-.407-.407v-.812h.813v.812c0 .227-.18.407-.406.407zm1.628-1.22h-.406v-.812H20.34v.813h-.406v-1.629h3.253zm0 0"/>
</svg>
